!!!CDT:
!!!PTL: Il decimoquinto libro de' madrigali à cinque voci
!!!PPP: Palermo
!!!PPR: Giovan Battista Maringo
!!!PDT: 1619
!!!RISM: I 15
!!!rime:
!!!AGN: Madrigal
!!!SCT: Tsg12076b
!!!SCA: Tsg12076b
!!!voices:
!!!COM: Il Verso, Antonio
!!!OTL: Passa pur questo petto, e feri scempi
**kern	**text	**kern	**text	**kern	**text	**kern	**text	**kern	**text
*part5	*part5	*part4	*part4	*part3	*part3	*part2	*part2	*part1	*part1
*staff5	*staff5	*staff4	*staff4	*staff3	*staff3	*staff2	*staff2	*staff1	*staff1
*I"Basso	*	*I"Quinto	*	*I"Tenore	*	*I"Alto	*	*I"Canto	*
*I'B	*	*I'V	*	*I'T	*	*I'A	*	*I'C	*
*oclefF4	*	*oclefC4	*	*oclefC4	*	*oclefC3	*	*oclefC1	*
*clefF4	*	*clefGv2	*	*clefGv2	*	*clefG2	*	*clefG2	*
*k[]	*	*k[]	*	*k[]	*	*k[]	*	*k[]	*
*omet(C)	*	*omet(C)	*	*omet(C)	*	*omet(C)	*	*omet(C)	*
*M4/2	*	*M4/2	*	*M4/2	*	*M4/2	*	*M4/2	*
=1	=1	=1	=1	=1	=1	=1	=1	=1	=1
!	!	!	!	!	!	!	!	!LO:TX:a:t=Seconda parte.	!
2.c	Pas-	4r	.	0r	.	4r	.	4r	.
.	.	2e	Pas-	.	.	2g	Pas-	2cc	Pas-
8G	-sa	8d	-sa	.	.	8g	-sa	8b	-sa
8G	pur	8d	pur	.	.	8g	pur	8b	pur
4G	que-	4d	que-	.	.	4g	que-	4b	que-
4A	-sto	4c	-sto	.	.	4e	-sto	4cc	-sto
4E	pet-	4B	pet-	.	.	4e	pet-	4g	pet-
4F	-to, e	4A	-to, e	.	.	4c	-to, e	4a	-to, e
=2	=2	=2	=2	=2	=2	=2	=2	=2	=2
4D	fe-	4d	fe-	1r	.	4f	fe-	4b	fe-
4C	-ri	4e	-ri	.	.	4g	-ri	4cc	-ri
2G	scem-	2d	scem-	.	.	2g	scem-	2b	scem-
4G	-pi	4d	-pi	4r	.	4g	-pi	2b	-pi
4G	Col	4d	Col	4G	Col	4G	Col	.	.
4.D	fer-	4.f	fer-	4.A	fer-	4.d	fer-	4r	.
.	.	.	.	.	.	.	.	4dd	Col
8D	-ro	8f	-ro	8A	-ro	8d	-ro	.	.
=3	=3	=3	=3	=3	=3	=3	=3	=3	=3
8D	tuo	8f	tuo	8A	tuo	8d	tuo	4a	fer-
8D	cru-	8f	cru-	8B	cru-	8d	cru-	.	.
2E	-del	2e	-del	2c	-del	4G	-del	2g	-ro
.	.	.	.	.	.	2r	.	.	.
2F	fà	2A	fà	2d	fà	.	.	8f	tuo
.	.	.	.	.	.	.	.	8g	cru-
.	.	.	.	.	.	4r	.	4a	-del
8E	del	8B	del	8G	del	2c	fà	2cc	fà
8D	mio	8d	mio	8A	mio	.	.	.	.
2C	co-	2G	co-	4e	co-	.	.	.	.
.	.	.	.	8dL	.	8e	del	8b	del
.	.	.	.	8cJ	.	8f	mio	8a	mio
=4	=4	=4	=4	=4	=4	=4	=4	=4	=4
1GG	-re.	1G	-re.	1d	.	1g	co-	4b	co-
.	.	.	.	.	.	.	.	2cc	.
.	.	.	.	.	.	.	.	4b	.
2r	.	2r	.	2c	-re.	2e	-re.	2cc	-re.
2C	Ma	2c	Ma	2e	Ma	2g	Ma	2cc	Ma
=5	=5	=5	=5	=5	=5	=5	=5	=5	=5
4C	for-	4c	for-	4e	for-	4g	for-	4cc	for-
4C	-si, u-	4c	-si, u-	4e	-si, u-	4g	-si, u-	4cc	-si, u-
4.C	-sa-	4.c	-sa-	2e	-sa-	4.g	-sa-	4.cc	-sa-
8C	-ta a	8c	-ta a	.	.	8g	-ta a	8cc	-ta a
4C	fat-	4c	fat-	2e	-ta	4g	fat-	4cc	fat-
4C	-ti a-	4c	-ti a-	.	.	4g	-ti a-	4cc	-ti a-
4G	-tro-	4d	-tro-	2r	.	4g	-tro-	4b	-tro-
4A	-ci ed	4c	-ci ed	.	.	4e	-ci ed	[4cc	-ci ed
=6	=6	=6	=6	=6	=6	=6	=6	=6	=6
2G	em-	2e	em-	2r	.	2g	em-	4cc]	.
.	.	.	.	.	.	.	.	2cc	em-
2G	-pi,	2d	-pi	4r	.	2g	-pi,	.	.
.	.	.	.	4.G	Sti-	.	.	4b	-pi,
4r	.	4r	.	.	.	4r	.	4r	.
.	.	.	.	8F#X	-mi	.	.	.	.
2BB	Sti-	2B	Sti-	4F#X	pie-	2d#X	Sti-	2b	Sti-
.	.	.	.	2F#X	-tà	.	.	.	.
8BB	-mi	8B	-mi	.	.	8d#X	-mi	8b	-mi
8BB	pie-	8B	pie-	.	.	8d#X	pie-	8b	pie-
=7	=7	=7	=7	=7	=7	=7	=7	=7	=7
2BB	-tà	2B	-tà	2F#X	dar	2d#X	-tà	2b	-tà
2GG#X	dar	2B	dar	1E	mor-	4r	.	2.ee	dar
.	.	.	.	.	.	2a	dar	.	.
2.AA	mor-	2.c	mor-	.	.	.	.	.	.
.	.	.	.	.	.	2e	mor-	2cc	mor-
.	.	.	.	2e	-te al	.	.	.	.
[4E	-te al	[4B	-te al	.	.	4e	-te al	[4g	-te al
=8	=8	=8	=8	=8	=8	=8	=8	=8	=8
4E]	.	4B]	.	4.B	mio	8e	mio	4g]	.
.	.	.	.	.	.	8f	do-	.	.
8BB	mio	4.d	mio	.	.	2g	-lo-	8g	mio
8BB	do-	.	.	8B	do-	.	.	8g	do-
2D	-lo-	.	.	2A	-lo-	.	.	2a	-lo-
.	.	8d	do-	.	.	.	.	.	.
.	.	4A	-lo-	.	.	4f#X	.	.	.
1GGnXi	-re.	2d	.	1G	-re.	1g	-re.	1b	-re.
.	.	2d	-re.	.	.	.	.	.	.
=9	=9	=9	=9	=9	=9	=9	=9	=9	=9
0r	.	2r	.	2r	.	2r	.	2r	.
.	.	2e	Dun-	2c	Dun-	2g	Dun-	2cc	Dun-
.	.	4f	-que	4F	-que	4a	-que	4cc	-que
.	.	4c	vi-	4A	vi-	4e	vi-	4cc	vi-
.	.	4d	-vrò	4G	-vrò	4g	-vrò	4b	-vrò
.	.	[4e	tra	[4c	tra	[4g	tra	[4cc	tra
=10	=10	=10	=10	=10	=10	=10	=10	=10	=10
0r	.	4e]	.	4c]	.	4g]	.	4cc]	.
.	.	8e	me-	8c	me-	8g	me-	8cc	me-
.	.	8e	-mo-	8c	-mo-	8g	-mo-	8cc	-mo-
.	.	4e	-ran-	4E	-ran-	4g	-ran-	4b	-ran-
.	.	2e	-di es-	4E	-di es-	4g	-di es-	2cc	-di es-
.	.	.	.	2G	-sem-	2g	-sem-	.	.
.	.	2d	-sem-	.	.	.	.	2b	-sem-
.	.	.	.	2G	-pi	2g	-pi	.	.
.	.	4d	-pi	.	.	.	.	4b	-pi
=11	=11	=11	=11	=11	=11	=11	=11	=11	=11
2.E	Mi-	2.e	Mi-	2.B	Mi-	1r	.	2.g	Mi-
8E	-se-	8e	-se-	8B	-se-	.	.	8g	-se-
8F	-ro	8A	-ro	8A	-ro	.	.	8a	-ro
2C	mo-	2e	mo-	2c	mo-	2r	.	2g	mo-
2AA	-stro,	4e	-stro,	2c#X	-stro	8r	.	2a	-stro,
.	.	.	.	.	.	8e	Mi-	.	.
.	.	[4e	Mi-	.	.	8e	-se-	.	.
.	.	.	.	.	.	8A	-ro	.	.
=12	=12	=12	=12	=12	=12	=12	=12	=12	=12
2.A	Mi-	4e]	.	0r	.	8A	mo-	2.cc	Mi-
.	.	.	.	.	.	8e	-stro	.	.
.	.	8d	-se-	.	.	8f	d'in-	.	.
.	.	8c	-ro	.	.	8e	-fe-	.	.
.	.	2A	mo-	.	.	2.e	-li-	.	.
8G	-se-	.	.	.	.	.	.	8b	-se-
8F	-ro	.	.	.	.	.	.	8a	-ro
8G	mo-	4G	-stro	.	.	.	.	4b	mo-
8E	-stro	.	.	.	.	.	.	.	.
8A	d'in-	2c	d'in-	.	.	8dL	.	2cc	-stro
8A	-fe-	.	.	.	.	8cJ	.	.	.
4A	-li-	.	.	.	.	8eL	.	.	.
.	.	.	.	.	.	8f	.	.	.
8GL	.	4d	-fe-	.	.	8g	.	8b	d'in-
8FJ	.	.	.	.	.	8dJ	.	8a	-fe-
=13	=13	=13	=13	=13	=13	=13	=13	=13	=13
8EL	.	4G	-li-	4.G	d'in-	2.e	.	4.ee	-li-
8D	.	.	.	.	.	.	.	.	.
8C	.	4c	-ce a-	.	.	.	.	.	.
8BBJ	.	.	.	8G	-fe-	.	.	8dd	.
4AA	.	2c	-mo-	4A	-li-	.	.	8ccL	.
.	.	.	.	.	.	.	.	8b	.
4FF	-ce a-	.	.	4c	-ce a-	4f	-ce a-	8aJ	.
.	.	.	.	.	.	.	.	8ccJL	-ce a-
2C	-mo-	1E	-re:	2c	-mo-	2e	-mo-	2g	-mo-
2C	-re:	.	.	2c	-re:	2e	-re:	2g	-re:
=14	=14	=14	=14	=14	=14	=14	=14	=14	=14
0r	.	2r	.	2r	.	2r	.	2r	.
.	.	2.c	Mi-	2.e	Mi-	2.g	Mi-	2.ee	Mi-
.	.	8A	-se-	8e	-se-	8a	-se-	8cc	-se-
.	.	8d	-ro	8f	-ro	8f	-ro	8dd	-ro
.	.	4c	mo-	4e	mo-	4g	mo-	4ee	mo-
.	.	4G	-stro, a	4d	-stro, a	4g	-stro, a	4b	-stro, a
=15	=15	=15	=15	=15	=15	=15	=15	=15	=15
1r	.	4A	cui	4c#X	cui	4e	cui	4a	cui
.	.	4A	sol	4c#X	sol	4e	sol	4a	sol
.	.	4A	pe-	4c#X	pe-	4e	pe-	4a	pe-
.	.	4A	-na è	4c#X	-na è	4e	-na è	4a	-na è
2r	.	2D	de-	2d	de-	2f	de-	2a	de-
4A	Del-	4A	-gna	2cnXi	-gna	2e	-gna	2a	-gna
4A	-l'im-	8c	De	.	.	.	.	.	.
.	.	8c	l'im-	.	.	.	.	.	.
=16	=16	=16	=16	=16	=16	=16	=16	=16	=16
2.A	-men-	4c	-men-	2r	.	4e	De	4r	.
.	.	8c	-sa	.	.	4e	l'im-	2cc	De
.	.	8A	pie-	.	.	.	.	.	.
.	.	2e	-tà,	4r	.	4e	-men-	.	.
8G	-sa	.	.	8B	De	8e	-sa	4b	l'im-
8G	pie-	.	.	8B	l'im-	8e	pie-	.	.
1F#X	-tà	1r	.	2.c#X	-men-	1f#X	-tà	4a#X	-men-
.	.	.	.	.	.	.	.	2b	-sa
.	.	.	.	8c#X	-sa	.	.	4a#X	pie-
.	.	.	.	8c#X	pie-	.	.	.	.
=17	=17	=17	=17	=17	=17	=17	=17	=17	=17
4BB	la	4r	.	2d#X	-tà,	4g#X	la	1b	-tà
2BB	vi-	8B	De	.	.	2a	vi-	.	.
.	.	8B	l'im-	.	.	.	.	.	.
.	.	2B	-men-	4r	.	.	.	.	.
4BB	-ta in-	.	.	8B	De	4g#X	-ta in-	.	.
.	.	.	.	8B	l'im-	.	.	.	.
[1AA	-de-	4c	-sa	2cnXi	-men-	2.a	-de-	2ee	la
.	.	4d	pie-	.	.	.	.	.	.
.	.	2e	-tà	4E	-sa	.	.	[2anXi	vi-
.	.	.	.	4E	pie-	8gnXiL	.	.	.
.	.	.	.	.	.	8fnXJ	.	.	.
=18	=18	=18	=18	=18	=18	=18	=18	=18	=18
0AA]	.	2c#X	la	4E	-tà	2.e	.	2a]	.
.	.	.	.	4E	la	.	.	.	.
.	.	4d	vi-	4F	vi-	.	.	2a	-ta in-
.	.	4d	-ta in-	4F	-ta in-	4d	.	.	.
.	.	2e	-de-	1E	-de-	4c#X	.	1a	-de-
.	.	.	.	.	.	2d	.	.	.
.	.	2A	.	.	.	.	.	.	.
.	.	.	.	.	.	4c#X	.	.	.
=19	=19	=19	=19	=19	=19	=19	=19	=19	=19
0Dl	-gna.	0Al	-gna.	0Dl	-gna.	0dl	-gna.	0f#Xl	-gna.
==	==	==	==	==	==	==	==	==	==
*-	*-	*-	*-	*-	*-	*-	*-	*-	*-
!!!system-decoration: [*]
!!!RDF**kern: i = editorial accidental
!!!RDF**kern: l = terminal long
!!!ENC: Emiliano Ricciardi
!!!END:
!!!EED: Ricciardi, Emiliano
!!!EEV: 2020/07/23
!!!YEC: Copyright 2018 Emiliano Ricciardi, All Rights Reserved
!!!ONB: Translated from MusicXML on 2020/07/23
!!@@BEGIN:	VERSEDATA
!!@CATALOGNUM:	Tsg12076
!!@LAST_MODIFIED: 2020/07/12
!!@TITLE:		Passa pur questo petto, e feri scempi
!!@CANTO:		XII
!!@OTTAVA:	76
!!@MANUSRC:	G-Al, G-Am, G-Au, G-Br<sub>1</sub>, G-Br<sub>2</sub>, G-Cv, G-Es<sub>1</sub>, G-Es<sub>2</sub>, G-Es<sub>3</sub>, G-F, G-Fr, G-Fr<sub>1</sub>, G-Fr<sub>2</sub>, G-Mc, G-Mc<sub>1</sub>, G-Mg, G-Mr, G-Mt, G-N, G-Ol
!!@PRINTSRC:	G-1580CM, G-1581B, G-1581CV, G-1581R, G-1581MR, G-1581P, G-1581V, G-1581V<sub>bis</sub>, G-1582C, G-1582M, G-1582MC, G-1582P, G-1582SC, G-1582SC<sub>bis</sub>, G-1583S, G-1584O, G-1584S, G-1585C, G-1585S, G-1588S, G-1589S, G-1590B, G-1590S, G-1592S, G-1593S, G-1594C, G-1595C, G-1597C, G-1598C, G-1599C, G-1600C, G-1600S, G-1601C, G-1601R, G-1602C, G-1604C, G-1604Cl, G-1604F, G-1604P, G-1606B, G-1606B<sub>bis</sub>, G-1606L, G-1607ZR, G-1608DP, G-1609GC, G-1610M, G-1611S, G-1611V, G-1612P, G-1613M, G-1613P, G-1613V, G-1615P, G-1616M, G-1617P, G-1619B, G-1619V, G-1620M, G-1620S, G-1621R, G-1624I, G-1624MT, G-1625C, G-1625S, G-1625SS, G-1626C, G-1626Co, G-1627M, G-1628T, G-1628Tu, G-1630L, G-1630T, G-1632FT, G-1639CF, G-1642M, G-1643I, G-1644P, G-1644S
!!@@BEGIN:	VERSES
!!@ABOUTIT:
!!@ABOUTEN:
!!@EDITOR:	Angelo Solerti
!!@EDITION_TITLE: Gerusalemme liberata. Poema eroico di Torquato Tasso. Edizione critica sui manoscritti e le prime stampe.
!!@EDITION_LOC:	Florence
!!@EDITION_PUB:	G. Barbera
!!@EDITION_DATE:  1895
!!@EDITION_VOL:
!!@EDITION_PAGE:
!!@TRANSLATOR:	Emiliano Ricciardi
!!@VERSE:
!!	Passa pur questo petto, e fieri scempi
!!	Col ferro tuo crudel fà del mio core.
!!	Ma forse, usata a’ fatti atroci ed empi,
!!	Stimi pietà dar morte al mio dolore.
!!	Dunque i’ vivrò tra memorandi esempi
!!	Misero mostro d’infelice amore:
!!	Misero mostro, a cui sol pena è degna
!!	Dell’immensa empietà la vita indegna.
!!@MVERSE_DATE: 20230824
!!@MVERSE:
!!	Pas||sa pur que||sto pet||to,_e fe||ri scem||pi		=a
!!	Col fer||ro tuo cru|del|| fà del mio co||re.		=b
!!	Ma for||se,_u|sa||ta_a’ fat||ti_a|tro||ci_ed em||pi,	=a
!!	Sti||mi pie|tà|| dar mor||te_al mio do|lo||re.		=b
!!	Dun||que_i’ vi|vrò|| tra me|mo|ran||di_e|sem||pi	=a
!!	Mi||se|ro mo||stro d’in|fe|li||ce_a|mo||re:		=b
!!	Mi||se|ro mo||stro,_a cui sol pe||na_è de||gna		=c
!!	Dell’im|men||sa_em|pie|tà|| la vi||ta_in|de||gna.	=c
!!@TVERSE:
!!	Pass through this chest, and fierce slaughter
!!	With your cruel iron make of my heart.
!!	But perhaps, used to deeds atrocious and wicked,
!!	You deem it pity to give death to my sorrow.
!!	Therefore I will live among memorable examples
!!	A miserable monster of unhappy love:
!!	A miserable monster, for whom the only punishment worthy
!!	Of his immense wickedness is an unworthy life.
!!@@END:		VERSES
!!@OTHER_CRIT_ED:  Torquato Tasso, <i>Gerusalemme liberata</i>, ed. Lanfranco Caretti, 2 vols. (Bari: Laterza, 1967).
!!@ATTRIBUTION_ABOUT:
!!@DATING:	mid-1560s through 1570s
!!@DEDICATEE:	Duke Alfonso II d'Este
!!@COMMENTARY:
!!@@END:		VERSEDATA
!!@@BEGIN: SETTING
!!@CATALOGNUM:	Tsg12076b
!!@CANTO:		XII
!!@OTTAVA:	76
!!@TITLE:	Passa pur questo petto, e feri scempi
!!@COMPOSER:	Il Verso, Antonio
!!@PARTS:		2 of 3
!!@PRINCEPSTITLE:	Il decimoquinto libro de' madrigali à cinque voci
!!@PRINCEPSLOC:	Palermo
!!@NORMLOC:	Palermo
!!@NORMPUB:	Giovan Battista Maringo
!!@NORMPUBSHORT:	Maringo
!!@PRINCEPSPUB:	Giovan Battista Maringo
!!@PRINCEPSYEAR:	1619
!!@PRINCEPSRISM:	I 15
!!@OVOICES:	5
!!@EXTANTVOICES:	5
!!@OMENSURATION:	C
!!@OCLEFS:	C1,C3,C4,C4,F4
!!@OTIME:		
!!@OKEYSIG:	-
!!@FINAL:		(G)G
!!@TIMPEDITOR:	Ricciardi, Emiliano
!!@REPRINTS:	
!!@@END: SETTING
